src/icons/main-download.svg

<svg enable-background="new 0 0 14 14" viewBox="0 0 14 14" xmlns="http://www.w3.org/2000/svg"><path d="m7 0c-3.9 0-7 3.1-7 7s3.1 7 7 7 7-3.1 7-7-3.1-7-7-7zm3.3 8.2-2.8 2.8c-.1.1-.3.2-.5.2s-.4-.1-.5-.2l-2.8-2.8c-.1-.1-.2-.3-.2-.5 0-.4.3-.7.7-.7.2 0 .4.1.5.2l1.6 1.6v-5.3c0-.4.3-.7.7-.7s.7.3.7.7v5.3l1.6-1.6c.1-.1.3-.2.5-.2.4 0 .7.3.7.7 0 .2-.1.4-.2.5z" fill="#4d5969"/></svg>

<?xml version="1.0" encoding="utf-8"?>
<!-- Generator: Adobe Illustrator 20.1.0, SVG Export Plug-In . SVG Version: 6.00 Build 0)  -->
<svg version="1.1" id="Layer_1" xmlns="http://www.w3.org/2000/svg" xmlns:xlink="http://www.w3.org/1999/xlink" x="0px" y="0px"
	 viewBox="0 0 14 14" style="enable-background:new 0 0 14 14;" xml:space="preserve">
<style type="text/css">
	.st0{fill:#4D5969;}
</style>
<title>HDL/Icon/Standard/download</title>
<desc>Created with Sketch.</desc>
<g id="Colors">
	<g id="Main-Icons" transform="translate(-621.000000, -500.000000)">
		<g id="Download" transform="translate(600.000000, 482.000000)">
			<g id="HDL_x2F_Icon_x2F_Standard_x2F_download" transform="translate(21.000000, 18.000000)">
				<path id="Shape" class="st0" d="M7,0C3.1,0,0,3.1,0,7s3.1,7,7,7s7-3.1,7-7S10.9,0,7,0z M10.3,8.2L7.5,11
					c-0.1,0.1-0.3,0.2-0.5,0.2S6.6,11.1,6.5,11L3.7,8.2C3.6,8.1,3.5,7.9,3.5,7.7C3.5,7.3,3.8,7,4.2,7c0.2,0,0.4,0.1,0.5,0.2l1.6,1.6
					V3.5c0-0.4,0.3-0.7,0.7-0.7s0.7,0.3,0.7,0.7v5.3l1.6-1.6C9.4,7.1,9.6,7,9.8,7c0.4,0,0.7,0.3,0.7,0.7C10.5,7.9,10.4,8.1,10.3,8.2
					z"/>
			</g>
		</g>
	</g>
</g>
</svg>
